packages/icons/src/status-upgrade.svg

<svg viewBox="0 0 20 20" fill="none" xmlns="http://www.w3.org/2000/svg">
<mask id="path-1-inside-1_3147_59610" fill="white">
<path fill-rule="evenodd" clip-rule="evenodd" d="M3.33338 12.2726L13.5186 1.66653L12.1518 7.72709L17.0227 7.72709L6.83746 18.3332L8.2043 12.2727L3.33338 12.2726Z"/>
</mask>
<path d="M13.5186 1.66653L14.4941 1.88654L15.2839 -1.61544L12.7974 0.973883L13.5186 1.66653ZM3.33338 12.2726L2.61211 11.58L0.986629 13.2726L3.33338 13.2726L3.33338 12.2726ZM12.1518 7.72709L11.1763 7.50709L10.9011 8.72709L12.1518 8.72709L12.1518 7.72709ZM17.0227 7.72709L17.744 8.41974L19.3695 6.72709L17.0227 6.72709L17.0227 7.72709ZM6.83746 18.3332L5.86197 18.1132L5.07217 21.6152L7.55874 19.0259L6.83746 18.3332ZM8.2043 12.2727L9.1798 12.4927L9.45494 11.2727L8.2043 11.2727L8.2043 12.2727ZM12.7974 0.973883L2.61211 11.58L4.05466 12.9653L14.2399 2.35918L12.7974 0.973883ZM13.1273 7.9471L14.4941 1.88654L12.5431 1.44653L11.1763 7.50709L13.1273 7.9471ZM17.0227 6.72709L12.1518 6.72709L12.1518 8.72709L17.0227 8.72709L17.0227 6.72709ZM7.55874 19.0259L17.744 8.41974L16.3014 7.03444L6.11619 17.6406L7.55874 19.0259ZM7.2288 12.0526L5.86197 18.1132L7.81296 18.5532L9.1798 12.4927L7.2288 12.0526ZM3.33338 13.2726L8.2043 13.2727L8.2043 11.2727L3.33338 11.2726L3.33338 13.2726Z" fill="#4F5162" mask="url(#path-1-inside-1_3147_59610)"/>
</svg>

<svg xmlns="http://www.w3.org/2000/svg" fill="none" viewBox="0 0 20 20"><mask id="a" fill="#fff"><path fill-rule="evenodd" d="M3.333 12.273 13.52 1.667l-1.367 6.06h4.87L6.838 18.333l1.367-6.06h-4.87Z" clip-rule="evenodd"/></mask><path fill="#4F5162" d="m13.519 1.667.975.22.79-3.502L12.797.974l.722.693ZM3.333 12.273l-.72-.693-1.626 1.693h2.346v-1Zm8.819-4.546-.976-.22-.275 1.22h1.25v-1Zm4.87 0 .722.693 1.625-1.693h-2.346v1ZM6.838 18.333l-.975-.22-.79 3.502 2.487-2.59-.722-.692Zm1.367-6.06.976.22.275-1.22h-1.25v1Zm4.593-11.3L2.612 11.58l1.443 1.385L14.24 2.36 12.797.974Zm.33 6.974 1.367-6.06-1.95-.44-1.368 6.06 1.951.44Zm3.896-1.22h-4.871v2h4.87v-2ZM7.559 19.026 17.744 8.42l-1.443-1.386L6.116 17.641l1.443 1.385Zm-.33-6.973-1.367 6.06 1.951.44 1.367-6.06-1.951-.44Zm-3.896 1.22h4.871v-2h-4.87v2Z" mask="url(#a)"/></svg>
